images_sukapura_svg/cmd/32/protect.svg

<svg viewBox="0 0 32 32" xmlns="http://www.w3.org/2000/svg"><path d="m16.507812 3.0253906a6 6 0 0 1 .355469.0429688c-.117796-.0170235-.235561-.0328937-.355469-.0429688zm.576172.0761719a6 6 0 0 1 .390625.0878906c-.128829-.0326125-.258626-.0637648-.390625-.0878906zm-2.27539.0175781c-.197341.0397777-.392221.0898107-.582032.1484375a6 6 0 0 1 .582032-.1484375zm-.582032.1484375c-.37981.1173121-.742491.2704601-1.085937.4570313a6 6 0 0 1 1.085937-.4570313zm3.4375-.0292969a6 6 0 0 1 .40625.1347657c-.133612-.0491815-.268364-.0950149-.40625-.1347657zm.550782.1875a6 6 0 0 1 .376953.1679688c-.123936-.0595399-.248474-.116872-.376953-.1679688zm.5625.2597657a6 6 0 0 1 .298828.1699219c-.098145-.0588137-.197146-.1166646-.298828-.1699219zm-5.763672.1152343c-.133263.0767169-.266018.15578-.392578.2421876a6 6 0 0 1 .392578-.2421876zm6.279297.1875a6 6 0 0 1 .294922.2089844c-.096699-.072356-.193837-.1424516-.294922-.2089844zm-3.292969.0117188a5 5 0 0 0 -5 5v7h1.001953v-7.0019531c0-2.2085674 1.78948-3.998047 3.998047-3.9980469 2.208567-.0000001 3.997685 1.7894796 3.998047 3.9980469l.001953 7.0019531h1v-7a5 5 0 0 0 -5-5zm-3.496094.1289062c-.118154.0849431-.234194.1705678-.345703.2636719a6 6 0 0 1 .345703-.2636719zm7.259766.1992188a6 6 0 0 1 .257812.2285156c-.085114-.0770927-.16836-.1563481-.257812-.2285156zm-7.802734.2441406c-.076839.0701435-.155418.1388847-.228516.2128906a6 6 0 0 1 .228516-.2128906zm8.253906.1601563a6 6 0 0 1 .21289.2285156c-.070143-.0768386-.138884-.1554177-.21289-.2285156zm-8.658203.2460937c-.077093.0851142-.156349.1683609-.228516.2578125a6 6 0 0 1 .228516-.2578125zm9.050781.1796875a6 6 0 0 1 .263672.3457031c-.084943-.1181543-.170568-.234194-.263672-.3457031zm-9.410156.2539063c-.072356.0966988-.142452.1938361-.208985.2949218a6 6 0 0 1 .208985-.2949218zm9.759765.2089844a6 6 0 0 1 .242188.3925781c-.076717-.1332624-.15578-.2660184-.242188-.3925781zm-10.101562.3027343c-.058814.0981453-.116665.1971462-.169922.2988281a6 6 0 0 1 .169922-.2988281zm10.419922.2167969a6 6 0 0 1 .457031 1.0859375c-.117312-.3798106-.27046-.7424914-.457031-1.0859375zm.457031 1.0859375a6 6 0 0 1 .148437.5820313c-.039777-.1973413-.08981-.3922205-.148437-.5820313zm-11.138672-.8183594c-.05954.1239357-.116872.2484738-.167969.3769531a6 6 0 0 1 .167969-.3769531zm-.220703.5214844c-.049182.1336123-.095015.268365-.134766.40625a6 6 0 0 1 .134766-.40625zm-.183594.5957031c-.032612.1288298-.063765.2586263-.087891.390625a6 6 0 0 1 .087891-.390625zm-.121094.6113282c-.017023.1177966-.032893.2355615-.042968.3554687a6 6 0 0 1 .042968-.3554687z" fill="#ebebeb"/><path d="m16 3a6 6 0 0 0 -6 6v7h1v-7a5 5 0 0 1 5-5 5 5 0 0 1 5 5v7h1v-7a6 6 0 0 0 -6-6z" fill="#69696e"/><path d="m16 5c-2.208567-.0000001-3.998047 1.7894795-3.998047 3.9980469v7.0019531h1l-.001953-7c0-1.6563541 1.343647-3.0000001 3-3 1.656354-.0000001 2.999792 1.343646 3 3v7h.333984.666016l-.001953-7.0019531c-.000362-2.2085673-1.78948-3.998047-3.998047-3.9980469z" fill="#69696e" stroke-width=".666494"/><path d="m6 16c-.554 0-1 .446-1 1v11c0 .554.446 1 1 1h20c.554 0 1-.446 1-1v-11c0-.554-.446-1-1-1h-4-1-10-1zm0 1h1 18 1v1 9 1h-1-18-1v-1-9z" fill="#a48200"/><path d="m6 17h20v11h-20z" fill="#fc0"/><g fill="#a05a00"><path d="m6 24h20v1h-20z"/><path d="m6 26h20v1h-20z"/><path d="m6 22h20v1h-20z"/></g></svg>

<?xml version="1.0" encoding="UTF-8" standalone="no"?>
<svg
   xmlns:dc="http://purl.org/dc/elements/1.1/"
   xmlns:cc="http://creativecommons.org/ns#"
   xmlns:rdf="http://www.w3.org/1999/02/22-rdf-syntax-ns#"
   xmlns:svg="http://www.w3.org/2000/svg"
   xmlns="http://www.w3.org/2000/svg"
   xmlns:sodipodi="http://sodipodi.sourceforge.net/DTD/sodipodi-0.dtd"
   xmlns:inkscape="http://www.inkscape.org/namespaces/inkscape"
   viewBox="0 0 32 32"
   version="1.1"
   id="svg6"
   sodipodi:docname="protect.svg"
   inkscape:version="0.92.3 (unknown)">
  <metadata
     id="metadata12">
    <rdf:RDF>
      <cc:Work
         rdf:about="">
        <dc:format>image/svg+xml</dc:format>
        <dc:type
           rdf:resource="http://purl.org/dc/dcmitype/StillImage" />
        <dc:title></dc:title>
      </cc:Work>
    </rdf:RDF>
  </metadata>
  <defs
     id="defs10" />
  <sodipodi:namedview
     pagecolor="#ffffff"
     bordercolor="#666666"
     borderopacity="1"
     objecttolerance="10"
     gridtolerance="10"
     guidetolerance="10"
     inkscape:pageopacity="0"
     inkscape:pageshadow="2"
     inkscape:window-width="1366"
     inkscape:window-height="699"
     id="namedview8"
     showgrid="true"
     inkscape:zoom="16.000001"
     inkscape:cx="10.580251"
     inkscape:cy="14.886108"
     inkscape:window-x="0"
     inkscape:window-y="0"
     inkscape:window-maximized="1"
     inkscape:current-layer="svg6">
    <inkscape:grid
       type="xygrid"
       id="grid822"
       spacingx="0.5"
       spacingy="0.5"
       empspacing="2" />
  </sodipodi:namedview>
  <g
     id="g830">
    <path
       id="path842"
       d="M 16.507812 3.0253906 A 6 6 0 0 1 16.863281 3.0683594 C 16.745485 3.0513359 16.62772 3.0354657 16.507812 3.0253906 z M 17.083984 3.1015625 A 6 6 0 0 1 17.474609 3.1894531 C 17.34578 3.1568406 17.215983 3.1256883 17.083984 3.1015625 z M 14.808594 3.1191406 C 14.611253 3.1589183 14.416373 3.2089513 14.226562 3.2675781 A 6 6 0 0 1 14.808594 3.1191406 z M 14.226562 3.2675781 C 13.846752 3.3848902 13.484071 3.5380382 13.140625 3.7246094 A 6 6 0 0 1 14.226562 3.2675781 z M 17.664062 3.2382812 A 6 6 0 0 1 18.070312 3.3730469 C 17.9367 3.3238654 17.801948 3.278032 17.664062 3.2382812 z M 18.214844 3.4257812 A 6 6 0 0 1 18.591797 3.59375 C 18.467861 3.5342101 18.343323 3.476878 18.214844 3.4257812 z M 18.777344 3.6855469 A 6 6 0 0 1 19.076172 3.8554688 C 18.978027 3.7966551 18.879026 3.7388042 18.777344 3.6855469 z M 13.013672 3.8007812 C 12.880409 3.8774981 12.747654 3.9565612 12.621094 4.0429688 A 6 6 0 0 1 13.013672 3.8007812 z M 19.292969 3.9882812 A 6 6 0 0 1 19.587891 4.1972656 C 19.491192 4.1249096 19.394054 4.054814 19.292969 3.9882812 z M 16 4 A 5 5 0 0 0 11 9 L 11 16 L 12.001953 16 L 12.001953 8.9980469 C 12.001953 6.7894795 13.791433 4.9999999 16 5 C 18.208567 4.9999999 19.997685 6.7894796 19.998047 8.9980469 L 20 16 L 21 16 L 21 9 A 5 5 0 0 0 16 4 z M 12.503906 4.1289062 C 12.385752 4.2138493 12.269712 4.299474 12.158203 4.3925781 A 6 6 0 0 1 12.503906 4.1289062 z M 19.763672 4.328125 A 6 6 0 0 1 20.021484 4.5566406 C 19.93637 4.4795479 19.853124 4.4002925 19.763672 4.328125 z M 11.960938 4.5722656 C 11.884099 4.6424091 11.80552 4.7111503 11.732422 4.7851562 A 6 6 0 0 1 11.960938 4.5722656 z M 20.214844 4.7324219 A 6 6 0 0 1 20.427734 4.9609375 C 20.357591 4.8840989 20.28885 4.8055198 20.214844 4.7324219 z M 11.556641 4.9785156 C 11.479548 5.0636298 11.400292 5.1468765 11.328125 5.2363281 A 6 6 0 0 1 11.556641 4.9785156 z M 20.607422 5.1582031 A 6 6 0 0 1 20.871094 5.5039062 C 20.786151 5.3857519 20.700526 5.2697122 20.607422 5.1582031 z M 11.197266 5.4121094 C 11.12491 5.5088082 11.054814 5.6059455 10.988281 5.7070312 A 6 6 0 0 1 11.197266 5.4121094 z M 20.957031 5.6210938 A 6 6 0 0 1 21.199219 6.0136719 C 21.122502 5.8804095 21.043439 5.7476535 20.957031 5.6210938 z M 10.855469 5.9238281 C 10.796655 6.0219734 10.738804 6.1209743 10.685547 6.2226562 A 6 6 0 0 1 10.855469 5.9238281 z M 21.275391 6.140625 A 6 6 0 0 1 21.732422 7.2265625 C 21.61511 6.8467519 21.461962 6.4840711 21.275391 6.140625 z M 21.732422 7.2265625 A 6 6 0 0 1 21.880859 7.8085938 C 21.841082 7.6112525 21.791049 7.4163733 21.732422 7.2265625 z M 10.59375 6.4082031 C 10.53421 6.5321388 10.476878 6.6566769 10.425781 6.7851562 A 6 6 0 0 1 10.59375 6.4082031 z M 10.373047 6.9296875 C 10.323865 7.0632998 10.278032 7.1980525 10.238281 7.3359375 A 6 6 0 0 1 10.373047 6.9296875 z M 10.189453 7.5253906 C 10.156841 7.6542204 10.125688 7.7840169 10.101562 7.9160156 A 6 6 0 0 1 10.189453 7.5253906 z M 10.068359 8.1367188 C 10.051336 8.2545154 10.035466 8.3722803 10.025391 8.4921875 A 6 6 0 0 1 10.068359 8.1367188 z "
       style="fill:#ebebeb;fill-opacity:1" />
    <path
       style="fill:#69696e;fill-opacity:1"
       id="path824"
       d="M 16 3 A 6 6 0 0 0 10 9 L 10 16 L 11 16 L 11 9 A 5 5 0 0 1 16 4 A 5 5 0 0 1 21 9 L 21 16 L 22 16 L 22 9 A 6 6 0 0 0 16 3 z " />
    <path
       id="path840"
       d="M 16 5 C 13.791433 4.9999999 12.001953 6.7894795 12.001953 8.9980469 L 12.001953 16 L 13.001953 16 L 13 9 C 13 7.3436459 14.343647 5.9999999 16 6 C 17.656354 5.9999999 18.999792 7.343646 19 9 L 19 16 L 19.333984 16 L 20 16 L 19.998047 8.9980469 C 19.997685 6.7894796 18.208567 4.9999999 16 5 z "
       style="fill:#69696e;fill-opacity:1;stroke-width:0.66649419" />
  </g>
  <g
     id="g825">
    <path
       style="fill:#a48200;fill-opacity:1"
       id="path2"
       d="M 6 16 C 5.446 16 5 16.446 5 17 L 5 28 C 5 28.554 5.446 29 6 29 L 26 29 C 26.554 29 27 28.554 27 28 L 27 17 C 27 16.446 26.554 16 26 16 L 22 16 L 21 16 L 11 16 L 10 16 L 6 16 z M 6 17 L 7 17 L 25 17 L 26 17 L 26 18 L 26 27 L 26 28 L 25 28 L 7 28 L 6 28 L 6 27 L 6 18 L 6 17 z " />
    <path
       style="fill:#ffcc00;fill-opacity:1"
       id="path4"
       fill="#fff"
       d="m6 17h20v11h-20z" />
    <rect
       y="24"
       x="6"
       height="1"
       width="20"
       id="rect832"
       style="opacity:1;fill:#a05a00;fill-opacity:1;stroke:none;stroke-width:0.52704626;stroke-linecap:round;stroke-linejoin:round;stroke-miterlimit:4;stroke-dasharray:none;stroke-opacity:0" />
    <rect
       style="opacity:1;fill:#a05a00;fill-opacity:1;stroke:none;stroke-width:0.52704626;stroke-linecap:round;stroke-linejoin:round;stroke-miterlimit:4;stroke-dasharray:none;stroke-opacity:0"
       id="rect838"
       width="20"
       height="1"
       x="6"
       y="26" />
    <rect
       style="opacity:1;fill:#a05a00;fill-opacity:1;stroke:none;stroke-width:0.52704626;stroke-linecap:round;stroke-linejoin:round;stroke-miterlimit:4;stroke-dasharray:none;stroke-opacity:0"
       id="rect855"
       width="20"
       height="1"
       x="6"
       y="22" />
  </g>
</svg>
